X: 6084
T: Captain Byng
R: reel
M: 4/4
K: Gmajor
g3d BGG2|eaag fdef|g3d BGGB|cAdB G3d|
g3d BGG2|eaag fdef|g3d BGGB|cAdB G2G2||
BGdG BGGB|cAeA cA A2|BGdG BGGB|cAdB G3A|
BGdG BGGB|cAeA cA A2|(3Bcd ef g3e|dBAB G2G2||

